X: 5161
T: Brighton
R: waltz
M: 3/4
K: Dmajor
A de|:"D"f2 fe fd|A2 Ad cd|"G"B2 Bd cB|"D"A2 D2 EF|
"G"GF GB AG|"D"FA df ed|1 "Em"e2 ed cd|"A"e3 A de:|2 "A"c2 cd ec|"D"d3 d cd||
"G"B2 Bd cd|"D"A3 D EF|"G"GF GB AG|"D"F2 Dd cd|
"G"B3 d cd|"D"A3 d ef|"Em"gf ed cd|"A"e2 Ad cd|
"G"B2 Bd cd|"D"A3 D EF|"G"GF GB AG|"D"F2 D2 EF|
"G"GF GB AG|"D"FA df ed|"A"c2 cd ec|"D"d6||

